X: 1
T: Bonnie Kate
R: reel
M: 4/4
L: 1/8
K: Dmaj
||:dB| A2dA (3Bcd AF | DFAF EA,CE | DFAF GBed | cABc d2 dB |
A2dA BdAF | DFAF EGFE | DFAF GBed | cABc d2 :||
|: fg | (3aba fd Adfa | (3gag ec Acef | ~g3f gbag | fgef d2 ef |
(3aba fd Adfa | (3gag ec Acef | ~g3f gbag | fgef d2 :||


Tune 754	Setting 13863

